src/icons/x-icon.svg

<svg width="45" height="45" viewBox="0 0 45 45" fill="none" xmlns="http://www.w3.org/2000/svg">
<circle cx="22.5" cy="22.5" r="22.5" fill="#9D74D3"/>
<path d="M12.0472 14.0109C12.0393 14.0227 12.6746 14.8893 13.455 15.9325C14.2354 16.9756 15.8943 19.1952 17.1413 20.8619L19.408 23.8933L19.2629 24.058C19.1805 24.1482 17.5139 25.9482 15.5609 28.058C13.608 30.1717 12.0041 31.9129 12.0001 31.9325C11.9923 31.9521 12.3335 31.9678 12.8237 31.9639L13.659 31.9599L13.9335 31.658C14.0864 31.4933 15.506 29.9599 17.0903 28.2462C18.6746 26.5325 20.0158 25.0815 20.0707 25.0188L20.1688 24.905L20.9531 25.956C21.3844 26.5325 22.5727 28.1246 23.5923 29.4893L25.4511 31.9678H28.2943C30.659 31.9678 31.1335 31.9599 31.1178 31.9168C31.106 31.8854 30.3844 30.9129 29.5139 29.7482C28.6433 28.5874 27.6472 27.254 27.3021 26.7913C26.9531 26.3286 25.9295 24.9521 25.0197 23.7403C24.1099 22.5246 23.3648 21.5129 23.3648 21.4972C23.3648 21.4697 28.1727 16.2501 29.808 14.505L30.2746 14.007H29.4158L28.5609 14.0109L27.5609 15.0933C27.0119 15.6893 25.6668 17.1482 24.5688 18.3286L22.5805 20.4776L20.1688 17.254L17.7531 14.0266L14.9099 14.007C13.3452 13.9952 12.055 13.9991 12.0472 14.0109ZM18.7844 17.4854C19.7139 18.7325 21.1492 20.6501 21.9727 21.7521C22.7962 22.8501 24.6237 25.2972 26.0354 27.1835C27.4472 29.0737 28.6158 30.6384 28.6354 30.6658C28.659 30.7011 28.3805 30.7129 27.3648 30.7129H26.0668L23.4943 27.2697C17.557 19.3364 14.5609 15.3286 14.5256 15.2697C14.5021 15.2344 14.7688 15.2227 15.7923 15.2227H17.0903L18.7844 17.4854Z" fill="white"/>
</svg>

<svg xmlns="http://www.w3.org/2000/svg" width="45" height="45" fill="none"><circle cx="22.5" cy="22.5" r="22.5" fill="#9d74d3"/><path d="M12.047 14.011c-.008.012.627.878 1.408 1.922l3.686 4.929 2.267 3.031-.145.165-3.702 4L12 31.933c-.008.02.333.035.824.031l.835-.004.274-.302 3.157-3.412 2.98-3.227.098-.114.784 1.051 2.639 3.533 1.859 2.479h2.843l2.823-.051c-.012-.031-.733-1.004-1.604-2.169l-2.212-2.957-2.282-3.051-1.655-2.243c0-.027 4.808-5.247 6.443-6.992l.467-.498h-.859l-.855.004-1 1.082-2.992 3.235-1.988 2.149-2.412-3.224-2.416-3.227-2.843-.02c-1.565-.012-2.855-.008-2.863.004zm6.737 3.474l3.188 4.267 4.063 5.431 2.6 3.482c.024.035-.255.047-1.271.047h-1.298l-2.573-3.443-8.969-12c-.024-.035.243-.047 1.267-.047h1.298l1.694 2.263z" fill="#fff"/></svg>
